X: 6003
T: Canoe In The Clouds
R: jig
M: 6/8
K: Gmajor
|:ADD FBB|BAF ~A3|BEE GAd|~B3 ABd|
BAD FBB|BAF ~A3|EFG BAG|FAF GFE:|
|:~F3 dcB|dcB ABc|dGG dcB|~G3 Bcd|
~F3 Bcd|edc Bde|fgf dcB|~G3 BAG:|

